icon-svg/friends-of-hue-retrotouch-black-chrome.svg

<svg xmlns="http://www.w3.org/2000/svg" fill="#44739e" viewBox="0 0 24 24"><path d="M12.5 6.5v11h5.4v-11zm3.9 10.1h-2.2c-.3 0-.5-.2-.5-.5s.2-.5.5-.5h2.2c.3 0 .5.2.5.5s-.2.5-.5.5m0-8.1h-2.2c-.3 0-.5-.2-.5-.5s.2-.5.5-.5h2.2c.3 0 .5.2.5.5s-.2.5-.5.5M6 6.5v11h5.5v-11zm3.8 10.1H7.6c-.3 0-.5-.2-.5-.5s.2-.5.5-.5h2.2c.3 0 .5.2.5.5s-.3.5-.5.5m0-8.1H7.6c-.3 0-.5-.2-.5-.5s.2-.5.5-.5h2.2c.3 0 .5.2.5.5s-.3.5-.5.5m13-7.8H1.2c-.2 0-.5.3-.5.5v21.5c0 .3.2.5.5.5h21.5c.3 0 .5-.2.5-.5V1.2c.1-.2-.2-.5-.4-.5m-3.4 17.4c0 .6-.4 1-1 1h-13c-.6 0-1-.4-1-1v-12c0-.6.4-1 1-1h12.9c.6 0 1 .4 1 1v12z"/></svg>

<svg viewBox="0 0 24 24" height="24px" width="24px" fill="#44739e" xmlns="http://www.w3.org/2000/svg"><title>hue:friends-of-hue-retrotouch-black-chrome</title><path d="M12.5,6.5v11h5.4v-11H12.5z M16.4,16.6h-2.2c-0.3,0-0.5-0.2-0.5-0.5s0.2-0.5,0.5-0.5h2.2c0.3,0,0.5,0.2,0.5,0.5 S16.7,16.6,16.4,16.6z M16.4,8.5h-2.2c-0.3,0-0.5-0.2-0.5-0.5s0.2-0.5,0.5-0.5h2.2c0.3,0,0.5,0.2,0.5,0.5S16.7,8.5,16.4,8.5 M6,6.5v11h5.5v-11H6z M9.8,16.6H7.6c-0.3,0-0.5-0.2-0.5-0.5s0.2-0.5,0.5-0.5h2.2c0.3,0,0.5,0.2,0.5,0.5S10,16.6,9.8,16.6z M9.8,8.5H7.6C7.3,8.5,7.1,8.3,7.1,8s0.2-0.5,0.5-0.5h2.2c0.3,0,0.5,0.2,0.5,0.5S10,8.5,9.8,8.5z M22.8,0.7H1.2C1,0.7,0.7,1,0.7,1.2v21.5c0,0.3,0.2,0.5,0.5,0.5h21.5c0.3,0,0.5-0.2,0.5-0.5V1.2C23.3,1,23,0.7,22.8,0.7z M19.4,18.1c0,0.6-0.4,1-1,1H5.4c-0.6,0-1-0.4-1-1v-12c0-0.6,0.4-1,1-1h12.9c0.6,0,1,0.4,1,1V18.1z"/></svg>
